svgs/duotone/circle-5.svg

<svg xmlns="http://www.w3.org/2000/svg" viewBox="0 0 512 512"><!-- Font Awesome Pro 6.0.0-alpha2 by @fontawesome - https://fontawesome.com License - https://fontawesome.com/license (Commercial License) --><defs><style>.fa-secondary{opacity:.4}</style></defs><path d="M256 16C123.451 16 16 123.451 16 256S123.451 496 256 496S496 388.549 496 256S388.549 16 256 16ZM272.953 384H223.359C195.125 384 170.156 366 161.234 339.219C157.047 326.625 163.844 313.031 176.422 308.844C188.953 304.781 202.578 311.469 206.766 324.031C209.156 331.188 215.812 336 223.359 336H272.953C290.078 336 304 322.062 304 304.938C304 289.188 292.219 275.938 276.594 274.125L189.203 263.844C182.578 263.062 176.594 259.562 172.641 254.188C168.703 248.812 167.172 242.062 168.422 235.531L185.156 147.531C187.312 136.188 197.203 128 208.734 128H312C325.25 128 336 138.75 336 152S325.25 176 312 176H228.594L220.391 219.188L282.187 226.438C321.984 231.125 352 264.844 352 304.938C352 348.531 316.547 384 272.953 384Z" class="fa-secondary"/><path d="M352.002 304.938C352.002 348.531 316.548 384 272.955 384H223.361C195.127 384 170.158 366 161.236 339.219C157.048 326.625 163.845 313.031 176.424 308.844C188.955 304.781 202.58 311.469 206.767 324.031C209.158 331.188 215.814 336 223.361 336H272.955C290.08 336 304.002 322.062 304.002 304.938C304.002 289.188 292.22 275.938 276.595 274.125L189.205 263.844C182.58 263.062 176.595 259.562 172.642 254.188C168.705 248.812 167.173 242.062 168.423 235.531L185.158 147.531C187.314 136.188 197.205 128 208.736 128H312.002C325.252 128 336.002 138.75 336.002 152S325.252 176 312.002 176H228.595L220.392 219.188L282.189 226.438C321.986 231.125 352.002 264.844 352.002 304.938Z" class="fa-primary"/></svg>

<svg xmlns="http://www.w3.org/2000/svg" viewBox="0 0 512 512"><!--! Font Awesome Pro 6.3.0 by @fontawesome - https://fontawesome.com License - https://fontawesome.com/license (Commercial License) Copyright 2023 Fonticons, Inc. --><defs><style>.fa-secondary{opacity:.4}</style></defs><path class="fa-primary" d="M352 304.9C352 348.5 316.5 384 272.1 384H223.4c-28.23 0-53.2-17.1-62.13-44.78c-4.188-12.59 2.609-26.19 15.19-30.38c12.53-4.062 26.16 2.625 30.34 15.19C209.2 331.2 215.8 336 223.4 336h49.59C290.1 336 304 322.1 304 304.9c0-15.75-11.78-29-27.41-30.81l-87.39-10.28c-6.625-.7813-12.61-4.281-16.56-9.656C168.7 248.8 167.2 242.1 168.4 235.5l16.73-88C187.3 136.2 197.2 128 208.7 128H312c13.25 0 24 10.75 24 24S325.3 176 312 176H228.6L220.4 219.2l61.8 7.25C321.1 231.1 352 264.8 352 304.9z"/><path class="fa-secondary" d="M256 0C114.6 0 0 114.6 0 256s114.6 256 256 256s256-114.6 256-256S397.4 0 256 0zM272.1 384H223.4c-28.23 0-53.2-18-62.13-44.78c-4.188-12.59 2.609-26.19 15.19-30.38c12.53-4.062 26.16 2.625 30.34 15.19C209.2 331.2 215.8 336 223.4 336h49.59C290.1 336 304 322.1 304 304.9c0-15.75-11.78-29-27.41-30.81l-87.39-10.28c-6.625-.7813-12.61-4.281-16.56-9.656C168.7 248.8 167.2 242.1 168.4 235.5l16.73-88C187.3 136.2 197.2 128 208.7 128H312c13.25 0 24 10.75 24 24S325.3 176 312 176H228.6L220.4 219.2l61.8 7.25C321.1 231.1 352 264.8 352 304.9C352 348.5 316.5 384 272.1 384z"/></svg>
